images/guide_icon_03.svg

<svg fill="none" height="56" viewBox="0 0 56 56" width="56" xmlns="http://www.w3.org/2000/svg"><path clip-rule="evenodd" d="m47.7027 17.0062c1.3833-.2047 2.6845-.7828 3.7636-1.6722 2.7724 5.1362 3.7832 11.0402 2.8771 16.8062-.906 5.766-3.6788 11.0754-7.893 15.1138-4.2141 4.0384-9.6368 6.5826-15.4361 7.2424-5.7994.6597-11.655-.6015-16.6685-3.5901-5.01357-2.9886-8.90812-7.5395-11.08617-12.9547-2.17806-5.4151-2.519308-11.3952-.9714-17.023 1.5479-5.6277 4.89946-10.5922 9.54047-14.13172 4.641-3.53954 10.3152-5.45864 16.1519-5.4629h.2286c-.1628.59645-.2523 1.21049-.2667 1.82857 0 2.03838.8098 3.99327 2.2511 5.43462 1.4414 1.44133 3.3962 2.25113 5.4346 2.25113 1.1409-.001 2.267-.2581 3.2953-.7524.126 1.3926.6296 2.7245 1.4565 3.8522s1.9458 2.0084 3.2361 2.5473c1.2904.5388 2.7033.7154 4.0866.5108zm-12.0364 10.9946c0 4.2447-3.441 7.6857-7.6857 7.6857s-7.6857-3.441-7.6857-7.6857 3.441-7.6857 7.6857-7.6857 7.6857 3.441 7.6857 7.6857z" fill="#d148b2" fill-rule="evenodd"/><path d="m51.4663 15.334.5867-.3167c-.0947-.1754-.263-.2993-.4587-.3376-.1956-.0383-.3982.013-.552.1398zm-3.7636 1.6722.0976.6595zm-1.2523 30.2478.4613.4813zm-32.1046 3.6523.3413-.5726zm-11.08617-12.9547-.61851.2488zm-.9714-17.023-.6428-.1768zm9.54047-14.13172.4043.5301zm16.1519-5.4629v-.666662h-.0005zm.2286 0 .6431.1755c.0547-.20047.0128-.41498-.1133-.580124-.1261-.165145-.322-.262038-.5298-.262038zm-.2667 1.82857-.6665-.01549c-.0001.00516-.0002.01033-.0002.01549zm2.2511 5.43462-.4714.4714v.00001zm5.4346 2.25113v.6666h.0006zm3.2953-.7524.6639-.0601c-.0197-.21766-.1448-.41185-.3349-.51972s-.4209-.11573-.6179-.02103zm12.1188 4.7236c-.9855.8123-2.1739 1.3403-3.4372 1.5272l.1952 1.319c1.5033-.2224 2.9174-.8507 4.09-1.8173zm3.9597 17.4242c.9287-5.9101-.1073-11.9617-2.949-17.2264l-1.1734.6333c2.7032 5.0079 3.6886 10.7643 2.8052 16.3861zm-8.0903 15.4916c4.3195-4.1393 7.1616-9.5815 8.0903-15.4916l-1.3172-.207c-.8834 5.6218-3.5869 10.7986-7.6956 14.736zm-15.8221 7.4235c5.9443-.6763 11.5026-3.2841 15.8221-7.4235l-.9225-.9626c-4.1088 3.9374-9.396 6.418-15.0503 7.0613zm-17.0852-3.6798c5.1389 3.0633 11.1409 4.356 17.0852 3.6798l-.1507-1.3248c-5.6543.6432-11.3636-.5864-16.2518-3.5003zm-11.36328-13.2786c2.2325 5.5505 6.22441 10.2152 11.36328 13.2786l.6827-1.1453c-4.88818-2.9139-8.68536-7.3511-10.80896-12.6308zm-.99569-17.4486c-1.586601 5.7684-1.236818 11.8981.99569 17.4486l1.23702-.4975c-2.1236-5.2798-2.45632-11.1104-.94712-16.5975zm9.77897-14.48501c-4.75702 3.62802-8.19237 8.71661-9.77897 14.48501l1.28559.3536c1.50921-5.487 4.77698-10.3274 9.30198-13.77842zm16.5557-5.599472c-5.9826.004357-11.7986 1.971442-16.5557 5.599472l.8086 1.06019c4.525-3.45105 10.0573-5.32218 15.7481-5.32633zm.2291 0h-.2286v1.333332h.2286zm.3998 2.510732c.0131-.564.0948-1.12431.2433-1.66857l-1.2863-.35099c-.177.64863-.2743 1.3164-.29 1.98857zm2.056 4.94772c-1.3163-1.31633-2.0558-3.10165-2.0558-4.96322h-1.3334c0 2.21519.88 4.33965 2.4464 5.90602zm4.9632 2.05583c-1.8615 0-3.6469-.73951-4.9632-2.05583l-.9428.94281c1.5664 1.56632 3.6908 2.44632 5.906 2.44632zm3.0064-.68655c-.9383.45109-1.9659.68575-3.0069.68655l.0011 1.3333c1.2407-.001 2.4653-.2806 3.5835-.8182zm2.283 4.05885c-.7552-1.0299-1.2151-2.2462-1.3302-3.5181l-1.3279.1202c.137 1.5134.6842 2.9609 1.5828 4.1863zm2.9554 2.3263c-1.1784-.4922-2.2002-1.2965-2.9554-2.3263l-1.0753.7884c.8987 1.2255 2.1146 2.1826 3.5169 2.7682zm3.7321.4665c-1.2633.1869-2.5536.0256-3.7321-.4665l-.5138 1.2303c1.4023.5856 2.9378.7776 4.4411.5552zm-19.6245 20.0065c4.6129 0 8.3524-3.7395 8.3524-8.3524h-1.3333c0 3.8765-3.1426 7.0191-7.0191 7.0191zm-8.3523-8.3524c0 4.6129 3.7394 8.3524 8.3523 8.3524v-1.3333c-3.8765 0-7.019-3.1426-7.019-7.0191zm8.3523-8.3524c-4.6129 0-8.3523 3.7395-8.3523 8.3524h1.3333c0-3.8765 3.1425-7.019 7.019-7.019zm8.3524 8.3524c0-4.6129-3.7395-8.3524-8.3524-8.3524v1.3334c3.8765 0 7.0191 3.1425 7.0191 7.019z" fill="#f36ed5"/></svg>

<svg width="56" height="56" viewBox="0 0 56 56" fill="none" xmlns="http://www.w3.org/2000/svg">
<path fill-rule="evenodd" clip-rule="evenodd" d="M47.7027 17.0062C49.086 16.8015 50.3872 16.2234 51.4663 15.334C54.2387 20.4702 55.2495 26.3742 54.3434 32.1402C53.4374 37.9062 50.6646 43.2156 46.4504 47.254C42.2363 51.2924 36.8136 53.8366 31.0143 54.4964C25.2149 55.1561 19.3593 53.8949 14.3458 50.9063C9.33223 47.9177 5.43768 43.3668 3.25963 37.9516C1.08157 32.5365 0.740322 26.5564 2.28823 20.9286C3.83613 15.3009 7.18769 10.3364 11.8287 6.79688C16.4697 3.25734 22.1439 1.33824 27.9806 1.33398H28.2092C28.0464 1.93043 27.9569 2.54447 27.9425 3.16255C27.9425 5.20093 28.7523 7.15582 30.1936 8.59717C31.635 10.0385 33.5898 10.8483 35.6282 10.8483C36.7691 10.8473 37.8952 10.5902 38.9235 10.0959C39.0495 11.4885 39.5531 12.8204 40.38 13.9481C41.2069 15.0758 42.3258 15.9565 43.6161 16.4954C44.9065 17.0342 46.3194 17.2108 47.7027 17.0062ZM35.6663 28.0008C35.6663 32.2455 32.2253 35.6865 27.9806 35.6865C23.7359 35.6865 20.2949 32.2455 20.2949 28.0008C20.2949 23.7561 23.7359 20.3151 27.9806 20.3151C32.2253 20.3151 35.6663 23.7561 35.6663 28.0008Z" fill="#D148B2"/>
<path d="M51.4663 15.334L52.053 15.0173C51.9583 14.8419 51.79 14.718 51.5943 14.6797C51.3987 14.6414 51.1961 14.6927 51.0423 14.8195L51.4663 15.334ZM47.7027 17.0062L47.8003 17.6657L47.8003 17.6657L47.7027 17.0062ZM46.4504 47.254L46.9117 47.7353L46.9117 47.7353L46.4504 47.254ZM14.3458 50.9063L14.6871 50.3337L14.6871 50.3337L14.3458 50.9063ZM3.25963 37.9516L2.64112 38.2004L3.25963 37.9516ZM2.28823 20.9286L1.64543 20.7518L2.28823 20.9286ZM11.8287 6.79688L12.233 7.32698L12.233 7.32698L11.8287 6.79688ZM27.9806 1.33398L27.9806 0.667318L27.9801 0.667318L27.9806 1.33398ZM28.2092 1.33398L28.8523 1.50948C28.907 1.30901 28.8651 1.0945 28.739 0.929356C28.6129 0.764211 28.417 0.667318 28.2092 0.667318V1.33398ZM27.9425 3.16255L27.276 3.14706C27.2759 3.15222 27.2758 3.15739 27.2758 3.16255L27.9425 3.16255ZM30.1936 8.59717L29.7222 9.06857L29.7222 9.06858L30.1936 8.59717ZM35.6282 10.8483L35.6282 11.5149L35.6288 11.5149L35.6282 10.8483ZM38.9235 10.0959L39.5874 10.0358C39.5677 9.81814 39.4426 9.62395 39.2525 9.51608C39.0624 9.40821 38.8316 9.40035 38.6346 9.49505L38.9235 10.0959ZM51.0423 14.8195C50.0568 15.6318 48.8684 16.1598 47.6051 16.3467L47.8003 17.6657C49.3036 17.4433 50.7177 16.815 51.8903 15.8484L51.0423 14.8195ZM55.002 32.2437C55.9307 26.3336 54.8947 20.282 52.053 15.0173L50.8796 15.6506C53.5828 20.6585 54.5682 26.4149 53.6848 32.0367L55.002 32.2437ZM46.9117 47.7353C51.2312 43.596 54.0733 38.1538 55.002 32.2437L53.6848 32.0367C52.8014 37.6585 50.0979 42.8353 45.9892 46.7727L46.9117 47.7353ZM31.0896 55.1588C37.0339 54.4825 42.5922 51.8747 46.9117 47.7353L45.9892 46.7727C41.8804 50.7101 36.5932 53.1907 30.9389 53.834L31.0896 55.1588ZM14.0044 51.479C19.1433 54.5423 25.1453 55.835 31.0896 55.1588L30.9389 53.834C25.2846 54.4772 19.5753 53.2476 14.6871 50.3337L14.0044 51.479ZM2.64112 38.2004C4.87362 43.7509 8.86553 48.4156 14.0044 51.479L14.6871 50.3337C9.79892 47.4198 6.00174 42.9826 3.87814 37.7029L2.64112 38.2004ZM1.64543 20.7518C0.058829 26.5202 0.408612 32.6499 2.64112 38.2004L3.87814 37.7029C1.75454 32.4231 1.42182 26.5925 2.93102 21.1054L1.64543 20.7518ZM11.4244 6.26679C6.66738 9.89481 3.23203 14.9834 1.64543 20.7518L2.93102 21.1054C4.44023 15.6184 7.708 10.778 12.233 7.32698L11.4244 6.26679ZM27.9801 0.667318C21.9975 0.671675 16.1815 2.63876 11.4244 6.26679L12.233 7.32698C16.758 3.87593 22.2903 2.0048 27.9811 2.00065L27.9801 0.667318ZM28.2092 0.667318H27.9806V2.00065H28.2092V0.667318ZM28.609 3.17805C28.6221 2.61405 28.7038 2.05374 28.8523 1.50948L27.566 1.15849C27.389 1.80712 27.2917 2.47489 27.276 3.14706L28.609 3.17805ZM30.665 8.12577C29.3487 6.80944 28.6092 5.02412 28.6092 3.16255H27.2758C27.2758 5.37774 28.1558 7.5022 29.7222 9.06857L30.665 8.12577ZM35.6282 10.1816C33.7667 10.1816 31.9813 9.44209 30.665 8.12577L29.7222 9.06858C31.2886 10.6349 33.413 11.5149 35.6282 11.5149V10.1816ZM38.6346 9.49505C37.6963 9.94614 36.6687 10.1808 35.6277 10.1816L35.6288 11.5149C36.8695 11.5139 38.0941 11.2343 39.2123 10.6967L38.6346 9.49505ZM40.9176 13.5539C40.1624 12.524 39.7025 11.3077 39.5874 10.0358L38.2595 10.156C38.3965 11.6694 38.9437 13.1169 39.8423 14.3423L40.9176 13.5539ZM43.873 15.8802C42.6946 15.388 41.6728 14.5837 40.9176 13.5539L39.8423 14.3423C40.741 15.5678 41.9569 16.5249 43.3592 17.1105L43.873 15.8802ZM47.6051 16.3467C46.3418 16.5336 45.0515 16.3723 43.873 15.8802L43.3592 17.1105C44.7615 17.6961 46.297 17.8881 47.8003 17.6657L47.6051 16.3467ZM27.9806 36.3532C32.5935 36.3532 36.333 32.6137 36.333 28.0008H34.9997C34.9997 31.8773 31.8571 35.0199 27.9806 35.0199V36.3532ZM19.6283 28.0008C19.6283 32.6137 23.3677 36.3532 27.9806 36.3532V35.0199C24.1041 35.0199 20.9616 31.8773 20.9616 28.0008H19.6283ZM27.9806 19.6484C23.3677 19.6484 19.6283 23.3879 19.6283 28.0008H20.9616C20.9616 24.1243 24.1041 20.9818 27.9806 20.9818V19.6484ZM36.333 28.0008C36.333 23.3879 32.5935 19.6484 27.9806 19.6484V20.9818C31.8571 20.9818 34.9997 24.1243 34.9997 28.0008H36.333Z" fill="#F36ED5"/>
</svg>
